im/table2.svg

<svg version="1.1" xmlns="http://www.w3.org/2000/svg" viewBox="0 0 16 16" height="1em" width="1em">
  <path fill="#000000" d="M0 1v14h16v-14h-16zM6 10v-3h4v3h-4zM10 11v3h-4v-3h4zM10 3v3h-4v-3h4zM5 3v3h-4v-3h4zM1 7h4v3h-4v-3zM11 7h4v3h-4v-3zM11 6v-3h4v3h-4zM1 11h4v3h-4v-3zM11 14v-3h4v3h-4z"/>
</svg>

<svg xmlns="http://www.w3.org/2000/svg" viewBox="0 0 16 16" height="1em" width="1em">
  <path d="M0 1v14h16V1H0zm6 9V7h4v3H6zm4 1v3H6v-3h4zm0-8v3H6V3h4zM5 3v3H1V3h4zM1 7h4v3H1V7zm10 0h4v3h-4V7zm0-1V3h4v3h-4zM1 11h4v3H1v-3zm10 3v-3h4v3h-4z"/>
</svg>
